X: 38821
T: Sully's
R: jig
M: 6/8
K: Dmajor
|:f2f edB|AFD DEF|G2A BAF|ABA F2e|
f2f edB|AFD DEF|G2A BAF|1 Adc d2e:|2 Adc d2c||
|:B2B dcB|cBA FGA|B2B dcB|cde fec|
B2B dcB|cBA FGA|dcB cBA|1 Bcd edc:|2 Bcd eag||

